src/symbolic/status/network-disconnected-symbolic.svg

<svg xmlns="http://www.w3.org/2000/svg" width="16" height="16"><path d="M11 11v1c0 .28.1.54.28.72l.78.78-.78.78c-.18.19-.28.45-.28.72v1h1c.28 0 .54-.1.72-.28l.78-.78.78.78c.18.18.45.28.72.28h1v-1c0-.27-.1-.53-.28-.72l-.78-.78.78-.78c.18-.18.28-.44.28-.72v-1h-1c-.27 0-.54.1-.72.28l-.78.79-.78-.79c-.18-.18-.44-.28-.72-.28z" fill="#444"/><path d="M10 9l5.5-4.5L10 0v2H7v5h3v2z" fill="#444" opacity=".3"/><path d="M6 6L.5 10.5 6 15v-2h3V8H6z" fill="#444" opacity=".3"/></svg>

<svg xmlns="http://www.w3.org/2000/svg" width="16" height="16" version="1.1">
 <path style="fill:#444444" d="M 11,11 V 12 C 11,12.28 11.1,12.54 11.28,12.72 L 12.06,13.5 11.28,14.28 C 11.1,14.47 11,14.73 11,15 V 16 H 12 C 12.28,16 12.54,15.9 12.72,15.72 L 13.5,14.94 14.28,15.72 C 14.46,15.9 14.73,16 15,16 H 16 V 15 C 16,14.73 15.9,14.47 15.72,14.28 L 14.94,13.5 15.72,12.72 C 15.9,12.54 16,12.28 16,12 V 11 H 15 C 14.73,11 14.46,11.1 14.28,11.28 L 13.5,12.07 12.72,11.28 C 12.54,11.1 12.28,11 12,11 Z"/>
 <path style="fill:#444444;opacity:0.3" d="M 10,9 15.5,4.5 10,0 C 10,0.01 10,1.34 10,2 9,2 8,2 7,2 7,3.67 7,5.34 7,7 8,7 9,7 10,7 10,7.67 10,9 10,9 Z"/>
 <path style="fill:#444444;opacity:0.3" d="M 6,6 0.5,10.5 6,15 V 13 H 9 V 8 H 6 Z"/>
</svg>
